X:58
T:Polska ur Petter Dufvas notbok (Ma6-58)
R:Polska
O:Verkelbäck, Småland
B:Petter Dufvas notbok
S:Petter Dufva
N:Smus Ma6 bild 58
M:3/4
L:1/8
K:D
[fd][fd][fd][fd][fd][fd] | dc/2B/2 ABcd | ed/2c/2 dc/2B/2 cB/2A/2 | BA/2^G/2 A2 A,2 :|:
A^G/2A/2 BA/2B/2 c2 | dc/2d/2 ed/2e/2 f2 | ag/2f/2 gf/2e/2 fe/2d/2 | ed/2c/2 d2 D2 :|

